X:106
T:Caroline's Fancey
O:No 106 Page 49 Wm Clarke MS  Feltwell, Norfolk
N:2nd Strain: Shown in MS with ||:  but no :||.
N: C# in ante-penult bar may be error in MS as C## seems incorrect.
I:abc2nwc
M:2/2
L:1/8
K:D
A/2B/2c/2|d3/2A/2f3/2e/2 d3/2A/2f3/2e/2|d3/2A/2f3/2d/2 g3/2e/2c3/2A/2|
d3/2A/2f3/2e/2 d3/2A/2f3/2d/2|e3/2g/2c3/2e/2 d2:|
"^*"f/2g/2|a3/2f/2d'3/2f/2 a3/2f/2d'3/2f/2|
a3/2f/2d'3/2f/2 ge e2|a3/2f/2d'3/2f/2 a3/2f/2d'3/2f/2|
gbag fdd(f/2g/2)|a3/2f/2d'3/2f/2 a3/2f/2d'3/2f/2|
a3/2f/2d'3/2f/2 gee^c'|d'c'ba bagf|fd d2|]


